src/activities/enumerate/resource/peach.svg

<?xml version="1.0" encoding="UTF-8" standalone="no"?>
<!-- Created with Inkscape (http://www.inkscape.org/) -->

<svg
   xmlns:osb="http://www.openswatchbook.org/uri/2009/osb"
   xmlns:dc="http://purl.org/dc/elements/1.1/"
   xmlns:cc="http://creativecommons.org/ns#"
   xmlns:rdf="http://www.w3.org/1999/02/22-rdf-syntax-ns#"
   xmlns:svg="http://www.w3.org/2000/svg"
   xmlns="http://www.w3.org/2000/svg"
   xmlns:sodipodi="http://sodipodi.sourceforge.net/DTD/sodipodi-0.dtd"
   xmlns:inkscape="http://www.inkscape.org/namespaces/inkscape"
   id="svg2"
   version="1.1"
   inkscape:version="0.92.1 r15371"
   width="100"
   height="100"
   sodipodi:docname="peach.svg">
  <sodipodi:namedview
     pagecolor="#ffffff"
     bordercolor="#666666"
     borderopacity="1"
     objecttolerance="10"
     gridtolerance="10"
     guidetolerance="10"
     inkscape:pageopacity="0"
     inkscape:pageshadow="2"
     inkscape:window-width="1884"
     inkscape:window-height="1051"
     id="namedview4"
     showgrid="false"
     inkscape:zoom="1.9516147"
     inkscape:cx="-159.86995"
     inkscape:cy="49.98821"
     inkscape:window-x="0"
     inkscape:window-y="0"
     inkscape:window-maximized="1"
     inkscape:current-layer="layer1"
     inkscape:snap-global="false" />
  <metadata
     id="metadata8">
    <rdf:RDF>
      <cc:Work
         rdf:about="">
        <dc:format>image/svg+xml</dc:format>
        <dc:type
           rdf:resource="http://purl.org/dc/dcmitype/StillImage" />
        <dc:title />
        <dc:date>2017</dc:date>
        <dc:creator>
          <cc:Agent>
            <dc:title>Timothée Giet</dc:title>
          </cc:Agent>
        </dc:creator>
        <cc:license
           rdf:resource="http://creativecommons.org/licenses/by-sa/4.0/" />
      </cc:Work>
      <cc:License
         rdf:about="http://creativecommons.org/licenses/by-sa/4.0/">
        <cc:permits
           rdf:resource="http://creativecommons.org/ns#Reproduction" />
        <cc:permits
           rdf:resource="http://creativecommons.org/ns#Distribution" />
        <cc:requires
           rdf:resource="http://creativecommons.org/ns#Notice" />
        <cc:requires
           rdf:resource="http://creativecommons.org/ns#Attribution" />
        <cc:permits
           rdf:resource="http://creativecommons.org/ns#DerivativeWorks" />
        <cc:requires
           rdf:resource="http://creativecommons.org/ns#ShareAlike" />
      </cc:License>
    </rdf:RDF>
  </metadata>
  <defs
     id="defs6">
    <linearGradient
       id="linearGradient4582"
       osb:paint="gradient">
      <stop
         style="stop-color:#ff8c00;stop-opacity:1;"
         offset="0"
         id="stop4578" />
      <stop
         style="stop-color:#ff0300;stop-opacity:0"
         offset="1"
         id="stop4580" />
    </linearGradient>
  </defs>
  <g
     inkscape:groupmode="layer"
     id="layer1"
     inkscape:label="Layer 1">
    <path
       sodipodi:nodetypes="csssc"
       style="fill:#af2c1a;fill-opacity:1;fill-rule:evenodd;stroke:none;stroke-width:2.23579717;stroke-linejoin:round"
       inkscape:connector-curvature="0"
       id="path866-3-3"
       d="M 48.652397,25.428299 C 72.805643,20.182771 91.907751,17.764616 95.545345,41.06156 99.980376,69.465627 91.656567,94.65445 54.881539,98.652446 1.5732729,104.44785 -11.239599,35.998243 20.563793,25.07061 c 15.185842,-5.217851 22.172603,0.819672 28.088604,0.357689 z" />
    <path
       sodipodi:nodetypes="czscsc"
       style="fill:#ea3f28;fill-opacity:1;fill-rule:evenodd;stroke:none;stroke-width:2.02904272;stroke-linejoin:round"
       inkscape:connector-curvature="0"
       id="path866-3-9-5-67"
       d="M 48.422999,28.144456 C 70.453337,23.407916 87.858921,18.747307 91.540468,42.089468 95.222016,65.431628 87.647404,90.653411 54.104641,94.26347 44.635751,95.282562 31.798085,95.739312 21.109722,85.058409 0.08099807,67.13688 1.8906481,36.133574 21.989891,27.177352 c 11.19469,-4.988353 21.037083,1.384262 26.433108,0.967104 z" />
    <g
       id="g4576-5"
       transform="matrix(0.57146525,-1.2676545,1.2337614,0.58716418,-17.902282,66.372228)">
      <path
         sodipodi:nodetypes="scccs"
         style="fill:#308830;fill-opacity:1;fill-rule:evenodd;stroke:none;stroke-width:2.11951137;stroke-linejoin:round"
         inkscape:connector-curvature="0"
         id="path984-6"
         d="m 54.584188,46.489834 c 8.469554,3.49244 18.107845,6.600853 18.436663,5.451516 C 73.347886,50.793102 65.09655,36.633931 64.652304,36.116323 57.607055,30.564548 53.237101,30.361604 44.91212,31.38123 c 2.646041,6.358347 1.202515,11.616163 9.672068,15.108604 z" />
      <path
         sodipodi:nodetypes="scccs"
         style="fill:#37c737;fill-opacity:1;fill-rule:evenodd;stroke:none;stroke-width:1.67586029;stroke-linejoin:round"
         inkscape:connector-curvature="0"
         id="path984-9-2"
         d="m 55.502471,45.421343 c 6.696726,2.761412 14.317553,5.219178 14.577544,4.310418 0.258581,-0.907899 -6.265605,-12.103305 -6.616862,-12.512569 -4.726919,-4.259504 -9.375054,-5.700528 -15.608216,-4.421921 2.092178,5.027433 0.950808,9.862661 7.647534,12.624072 z" />
    </g>
    <path
       style="fill:#51391b;fill-opacity:1;fill-rule:evenodd;stroke:none;stroke-width:2.75180125;stroke-linejoin:round"
       inkscape:connector-curvature="0"
       id="path867-9"
       d="M 45.154432,30.540742 C 42.827047,25.536526 47.447269,2.7581241 50.326523,1.2536346 52.196346,0.34876867 62.023487,1.8177141 57.765932,6.4240885 58.416977,8.7758426 55.712409,6.6653875 54.66917,8.0064704 52.586138,12.387129 49.044567,19.497594 49.593961,28.28803 Z"
       sodipodi:nodetypes="cccccc" />
    <path
       style="fill:#ea9128;fill-opacity:1;fill-rule:evenodd;stroke:none;stroke-width:2.0145638;stroke-linejoin:round"
       d="M 7.9759299,50.20005 C 2.8814182,49.808038 9.2238889,82.083137 19.93497,83.720885 l 0.06049,0.06176 C 42.425343,107.08693 65.706816,81.991849 57.129118,70.353831 50.573941,61.459921 48.930478,64.814683 30.517373,63.079255 24.641644,62.525471 22.278185,57.10174 17.368709,56.301166 12.459234,55.500591 8.7450425,50.852956 7.9759299,50.20005 Z"
       id="path866-3-9-53"
       inkscape:connector-curvature="0"
       sodipodi:nodetypes="cccsscc" />
    <path
       sodipodi:nodetypes="cccccc"
       style="fill:#634217;fill-opacity:1;fill-rule:evenodd;stroke:none;stroke-width:2.75180125;stroke-linejoin:round"
       inkscape:connector-curvature="0"
       id="path867-7-1"
       d="M 46.713096,29.823207 C 44.385711,24.818993 48.12347,4.6717548 51.002724,3.1672653 52.872547,2.2623996 57.889066,3.2816835 56.723283,5.3026967 57.374329,7.6544506 54.544491,5.0914912 53.501245,6.4325446 51.418214,10.813208 47.493995,19.715373 48.043388,28.505809 Z" />
    <path
       style="fill:#af2c1a;fill-opacity:1;fill-rule:evenodd;stroke:none;stroke-width:2.23579717;stroke-linejoin:round"
       d="M 26.483679,89.236954 C 15.245246,75.772229 11.481538,52.57131 26.102911,38.62179 22.027922,40.36166 3.6685944,53.551642 20.133004,84.591026 c 1.465005,2.761886 -9.786298,-5.212355 -7.620068,-4.069224 2.166228,1.143131 16.589925,11.4787 13.970743,8.715152 z"
       id="path866-3-3-2"
       inkscape:connector-curvature="0"
       sodipodi:nodetypes="ccssc" />
  </g>
</svg>

<!--Created with Inkscape (http://www.inkscape.org/)--><svg xmlns:dc="http://purl.org/dc/elements/1.1/" xmlns:cc="http://creativecommons.org/ns#" xmlns:rdf="http://www.w3.org/1999/02/22-rdf-syntax-ns#" xmlns="http://www.w3.org/2000/svg" xmlns:sodipodi="http://sodipodi.sourceforge.net/DTD/sodipodi-0.dtd" xmlns:inkscape="http://www.inkscape.org/namespaces/inkscape" inkscape:version="0.92.1 r15371" width="100" height="100" sodipodi:docname="peach.svg"><sodipodi:namedview pagecolor="#ffffff" bordercolor="#666666" borderopacity="1" objecttolerance="10" gridtolerance="10" guidetolerance="10" inkscape:pageopacity="0" inkscape:pageshadow="2" inkscape:window-width="1884" inkscape:window-height="1051" showgrid="false" inkscape:zoom="1.9516147" inkscape:cx="-159.86995" inkscape:cy="49.98821" inkscape:window-x="0" inkscape:window-y="0" inkscape:window-maximized="1" inkscape:current-layer="layer1" inkscape:snap-global="false"/><metadata><rdf:RDF><cc:Work><dc:format>image/svg+xml</dc:format><dc:type rdf:resource="http://purl.org/dc/dcmitype/StillImage"/><dc:title/><dc:date>2017</dc:date><dc:creator><cc:Agent><dc:title>Timothée Giet</dc:title></cc:Agent></dc:creator><cc:license rdf:resource="http://creativecommons.org/licenses/by-sa/4.0/"/></cc:Work><cc:License rdf:about="http://creativecommons.org/licenses/by-sa/4.0/"><cc:permits rdf:resource="http://creativecommons.org/ns#Reproduction"/><cc:permits rdf:resource="http://creativecommons.org/ns#Distribution"/><cc:requires rdf:resource="http://creativecommons.org/ns#Notice"/><cc:requires rdf:resource="http://creativecommons.org/ns#Attribution"/><cc:permits rdf:resource="http://creativecommons.org/ns#DerivativeWorks"/><cc:requires rdf:resource="http://creativecommons.org/ns#ShareAlike"/></cc:License></rdf:RDF></metadata><g inkscape:groupmode="layer" inkscape:label="Layer 1"><path sodipodi:nodetypes="csssc" style="fill:#af2c1a;fill-opacity:1;fill-rule:evenodd;stroke:none;stroke-width:2.23579717;stroke-linejoin:round" inkscape:connector-curvature="0" d="M48.652 25.428c24.154-5.245 43.256-7.663 46.893 15.634 4.435 28.404-3.888 53.592-40.663 57.59-53.309 5.796-66.122-62.654-34.318-73.581 15.186-5.218 22.172.82 28.088.357z"/><path sodipodi:nodetypes="czscsc" style="fill:#ea3f28;fill-opacity:1;fill-rule:evenodd;stroke:none;stroke-width:2.02904272;stroke-linejoin:round" inkscape:connector-curvature="0" d="M48.423 28.144c22.03-4.736 39.436-9.397 43.117 13.945 3.682 23.343-3.893 48.564-37.435 52.174-9.47 1.02-22.307 1.476-32.995-9.205-21.029-17.921-19.22-48.924.88-57.88 11.195-4.989 21.037 1.384 26.433.966z"/><path sodipodi:nodetypes="scccs" style="fill:#308830;fill-opacity:1;fill-rule:evenodd;stroke:none;stroke-width:2.11951137;stroke-linejoin:round" inkscape:connector-curvature="0" d="M54.584 46.49c8.47 3.492 18.108 6.6 18.437 5.451.327-1.148-7.924-15.307-8.369-15.825-7.045-5.551-11.415-5.754-19.74-4.735 2.646 6.359 1.203 11.616 9.672 15.109z" transform="matrix(.57147 -1.26765 1.23376 .58716 -17.902 66.372)"/><path sodipodi:nodetypes="scccs" style="fill:#37c737;fill-opacity:1;fill-rule:evenodd;stroke:none;stroke-width:1.67586029;stroke-linejoin:round" inkscape:connector-curvature="0" d="M55.502 45.421c6.697 2.762 14.318 5.22 14.578 4.31.259-.907-6.266-12.103-6.617-12.512-4.727-4.26-9.375-5.7-15.608-4.422 2.092 5.028.95 9.863 7.647 12.624z" transform="matrix(.57147 -1.26765 1.23376 .58716 -17.902 66.372)"/><path style="fill:#51391b;fill-opacity:1;fill-rule:evenodd;stroke:none;stroke-width:2.75180125;stroke-linejoin:round" inkscape:connector-curvature="0" d="M45.154 30.54c-2.327-5.003 2.293-27.782 5.173-29.286 1.87-.905 11.696.564 7.439 5.17.651 2.352-2.054.241-3.097 1.582-2.083 4.381-5.624 11.492-5.075 20.282z" sodipodi:nodetypes="cccccc"/><path style="fill:#ea9128;fill-opacity:1;fill-rule:evenodd;stroke:none;stroke-width:2.0145638;stroke-linejoin:round" d="M7.976 50.2c-5.095-.392 1.248 31.883 11.959 33.52l.06.063c22.43 23.304 45.712-1.791 37.134-13.43-6.555-8.893-8.199-5.538-26.612-7.274-5.875-.554-8.239-5.977-13.148-6.778-4.91-.8-8.624-5.448-9.393-6.101z" inkscape:connector-curvature="0" sodipodi:nodetypes="cccsscc"/><path sodipodi:nodetypes="cccccc" style="fill:#634217;fill-opacity:1;fill-rule:evenodd;stroke:none;stroke-width:2.75180125;stroke-linejoin:round" inkscape:connector-curvature="0" d="M46.713 29.823c-2.327-5.004 1.41-25.151 4.29-26.656 1.87-.905 6.886.115 5.72 2.136.651 2.351-2.179-.212-3.222 1.13-2.083 4.38-6.007 13.282-5.458 22.073z"/><path style="fill:#af2c1a;fill-opacity:1;fill-rule:evenodd;stroke:none;stroke-width:2.23579717;stroke-linejoin:round" d="M26.484 89.237c-11.239-13.465-15.002-36.666-.381-50.615-4.075 1.74-22.434 14.93-5.97 45.969 1.465 2.762-9.786-5.212-7.62-4.07 2.166 1.144 16.59 11.48 13.97 8.716z" inkscape:connector-curvature="0" sodipodi:nodetypes="ccssc"/></g></svg>
